dist/img/svg/ico-menu.svg

<svg width="28" height="20" viewBox="0 0 28 20" fill="none" xmlns="http://www.w3.org/2000/svg">
<path fill-rule="evenodd" clip-rule="evenodd" d="M27.3334 3.33332V0.666656H0.666748V3.33332H27.3334ZM27.3334 8.66666V11.3333H0.666748V8.66666H27.3334ZM27.3334 16.6667V19.3333H0.666748V16.6667H27.3334Z" fill="white"/>
</svg>

<svg width="28" height="20" viewBox="0 0 28 20" fill="none" xmlns="http://www.w3.org/2000/svg"><path fill-rule="evenodd" clip-rule="evenodd" d="M27.333 3.333V.667H.667v2.666h26.666zm0 5.334v2.666H.667V8.667h26.666zm0 8v2.666H.667v-2.666h26.666z" fill="#fff"/></svg>
